svgs/thin/id-card.svg

<svg xmlns="http://www.w3.org/2000/svg" viewBox="0 0 576 512"><!--! Font Awesome Pro 6.0.0-alpha3 by @fontawesome - https://fontawesome.com License - https://fontawesome.com/license (Commercial License) --><path d="M344 224h144c4.418 0 8-3.582 8-8S492.4 208 488 208h-144c-4.418 0-8 3.582-8 8S339.6 224 344 224zM344 288h144c4.418 0 8-3.582 8-8S492.4 272 488 272h-144c-4.418 0-8 3.582-8 8S339.6 288 344 288zM344 352h144c4.418 0 8-3.582 8-8s-3.582-8-8-8h-144c-4.418 0-8 3.582-8 8S339.6 352 344 352zM176 320c35.35 0 64-28.66 64-64s-28.65-64-64-64s-64 28.66-64 64S140.7 320 176 320zM176 208C202.5 208 224 229.5 224 256S202.5 304 176 304S128 282.5 128 256S149.5 208 176 208zM528 32h-480C21.49 32 0 53.49 0 80v352C0 458.5 21.49 480 48 480h480c26.51 0 48-21.49 48-48v-352C576 53.49 554.5 32 528 32zM560 432c0 17.64-14.36 32-32 32h-480c-17.64 0-32-14.36-32-32v-288h544V432zM560 128h-544V80c0-17.64 14.36-32 32-32h480c17.64 0 32 14.36 32 32V128zM72.02 423.8c4.344 1.047 8.594-1.719 9.562-6.031C88.23 388.5 113.9 368 144 368h64c30.09 0 55.77 20.47 62.42 49.77C271.3 421.5 274.6 424 278.2 424c.5781 0 1.172-.0625 1.766-.2031c4.312-.9687 7.016-5.266 6.031-9.562C277.7 377.6 245.6 352 208 352h-64c-37.61 0-69.7 25.59-78.02 62.23C65 418.5 67.7 422.8 72.02 423.8z"/></svg>

<svg xmlns="http://www.w3.org/2000/svg" viewBox="0 0 576 512"><!-- Font Awesome Pro 6.0.0-alpha2 by @fontawesome - https://fontawesome.com License - https://fontawesome.com/license (Commercial License) --><path d="M344 224H488C492.418 224 496 220.418 496 216S492.418 208 488 208H344C339.582 208 336 211.582 336 216S339.582 224 344 224ZM344 288H488C492.418 288 496 284.418 496 280S492.418 272 488 272H344C339.582 272 336 275.582 336 280S339.582 288 344 288ZM344 352H488C492.418 352 496 348.418 496 344S492.418 336 488 336H344C339.582 336 336 339.582 336 344S339.582 352 344 352ZM176 320C211.346 320 240 291.344 240 256S211.346 192 176 192S112 220.656 112 256S140.654 320 176 320ZM176 208C202.467 208 224 229.531 224 256S202.467 304 176 304S128 282.469 128 256S149.533 208 176 208ZM528 32H48C21.49 32 0 53.492 0 80V432C0 458.508 21.49 480 48 480H528C554.51 480 576 458.508 576 432V80C576 53.492 554.51 32 528 32ZM560 432C560 449.645 545.645 464 528 464H48C30.355 464 16 449.645 16 432V144H560V432ZM560 128H16V80C16 62.355 30.355 48 48 48H528C545.645 48 560 62.355 560 80V128ZM72.016 423.797C76.359 424.844 80.609 422.078 81.578 417.766C88.234 388.469 113.906 368 144 368H208C238.094 368 263.766 388.469 270.422 417.766C271.266 421.484 274.562 424 278.219 424C278.797 424 279.391 423.938 279.984 423.797C284.297 422.828 287 418.531 286.016 414.234C277.703 377.594 245.609 352 208 352H144C106.391 352 74.297 377.594 65.984 414.234C65 418.531 67.703 422.828 72.016 423.797Z"/></svg>
